X:1
T:The Hope of the Coming of the Lord
T:The Hope of the Coming of the Lord
T:May Whittle Moody
T:Daniel Webster Whittle, 1896
T:Public Domain, Courtesy of the Cyber Hymnal™
T:Public Domain, Courtesy of the Cyber Hymnal™
C:May Whittle Moody
Z:Public Domain,
Z:Courtesy of the Cyber Hymnal™
%%score ( 1 2 ) ( 3 4 )
L:1/8
Q:1/4=98
M:4/4
K:F
V:1 treble 
V:2 treble 
V:3 bass 
V:4 bass 
V:1
 C | C2 [CD]>[CE] [CF]3 [CF] | [CE][CF][CA][^CA] [DA]2 [DG][DA] | [DB]2 [DG]2 D2 [CE]2 | %4
w: 1.~A|lamp in the night, a|song in time of sor- row; A|great glad hope which|
w: 2.~A|star in the sky, a|bea- con bright to guide us; An|an- chor sure to|
w: 3.~A|call of com- mand, like|trump- et clear- ly sound- ing, To|make us bold when|
w: 4.~A|word from the One to|all our hearts the dear- est, A|part- ing word to|
 [CF][CF][=B,E][B,F] [CA]2 [CG]C | CC[CD][CE] [CF]2 [CF][CF] | [CE][CF][FA][GB] [Ac][Gc][^Fd][Ac] | %7
w: faith can ev- er bor- row To|gild the pass- ing day, with the|glo- ry of the mor- row, Is the|
w: hold when storms be- tide us; A|re- fuge for the soul, where in|qui- et we may hide us, Is the|
w: e- vil is sur- round- ing; To|stir the slug- gish heart and to|keep in good a- bound- ing, Is the|
w: make Him aye the near- est; Of|all His pre- cious words, th- e|sweet- est, bright- est, clear- est, Is the|
 [GB]2 F[FG] [FA]<[FA] [EG]>[CF] | [CF]6 ||"^Refrain" [FA][FA] | A4- [CA]2 [FA][Ac] | %11
w: hope of the com- ing of the|Lord.|||
w: hope of the com- ing of the|Lord.|Bless- èd|hope, bless- èd hope,|
w: hope of the com- ing of the|Lord.|||
w: hope of the com- ing of the|Lord.|||
 [Bc-]4 [Ec]2 [EB][Ec] | [Ge]2 [Fd][Ec] [EB]<[EB] [EA]>[E^G] | [FA]6 [FA][FA] | %14
w: |||
w: * Bless- èd hope|of the com- ing of the Lord;|How the ach-|
w: |||
w: |||
 [^FA][FA][FB][FA] [=Fd]2 [FG][FG] | [EG][EG][EA][EG] [_Ec]2 [Fd][Ec] | %16
w: ||
w: ing heart it cheers, How it glist-|ens through our tears, Bless- èd hope|
w: ||
w: ||
 [DB]2 F[FG] [FA]<[FA] [EG]>[CF] | [CF]6- [CF] |] %18
w: ||
w: of the com- ing of the Lord.||
w: ||
w: ||
V:2
 C | C2 x6 | x8 | x4 D2 x2 | x7 C | CC x6 | x8 | x2 F x5 | x6 || x2 | F2 ED x4 | x8 | x8 | x8 | %14
 x8 | x8 | x2 F x5 | x7 |] %18
V:3
 [F,A,] | [F,A,]2 [F,A,]>[F,G,] [F,A,]3 [A,,F,] | %2
 [A,,F,][A,,F,][A,,F,][A,,F,] [B,,F,]2 [B,,F,][A,,^F,] | [G,,G,]2 [B,,G,]2 [C,B,]2 [C,B,]2 | %4
 [D,A,][D,A,][G,,G,][G,,G,] [C,F,]2 [C,E,][C,B,] | [F,A,][F,A,][F,A,][F,G,] [F,A,]2 [F,A,][F,A,] | %6
 [F,G,][F,A,][F,C][F,C] [F,C][_F,C][D,A,][D,D] | [G,D]2 [B,,D][B,,_D] [C,C]<[C,C] [C,B,]>[F,,A,] | %8
 [F,,A,]6 || [F,C][F,C] | [F,C]4- [F,C]2 [F,C][F,F] | (F2 ED [C,C]2) [C,C][C,C] | %12
 [C,B,]2 [C,B,][C,C] [C,D]<[C,D] [C,C]>[C,C] | [F,C]6 [F,C][F,C] | %14
 [D,C][D,C][D,D][C,D] [=B,,G,]2 [B,,G,][B,,G,] | [C,B,][C,B,][C,C][B,,C] [A,,F,]2 [A,,F,][A,,F,] | %16
 [B,,B,]2 [A,,D][A,,_D] [C,C]<[C,C] [C,B,]>[F,,A,] | [F,,A,]6- [F,,A,] |] %18
V:4
 x | x8 | x8 | x8 | x8 | x8 | x8 | x8 | x6 || x2 | x8 | F,4 x4 | x8 | x8 | x8 | x8 | x8 | x7 |] %18

